icons/p5js-filled.svg

<svg width="256" height="256" viewBox="0 0 256 256" fill="none" xmlns="http://www.w3.org/2000/svg">
<rect width="256" height="256" rx="60" fill="#ED225D"/>
<path d="M176.532 145.884C174.787 141.972 172.359 138.669 169.246 135.98C166.134 133.292 162.478 131.239 158.281 129.825C154.082 128.411 149.53 127.703 144.627 127.703C142.834 127.703 140.83 127.8 138.613 127.985C136.396 128.177 134.487 128.505 132.883 128.978L133.873 107.327H174.765V92.0469H117.743L116.044 146.803C117.551 146.05 119.274 145.343 121.208 144.68C123.141 144.022 125.122 143.432 127.151 142.914C129.178 142.395 131.255 141.996 133.377 141.71C135.5 141.428 137.503 141.287 139.391 141.287C142.125 141.287 144.814 141.593 147.456 142.205C150.096 142.819 152.479 143.905 154.601 145.46C156.724 147.015 158.443 149.069 159.766 151.614C161.085 154.16 161.746 157.368 161.746 161.237C161.746 164.255 161.251 166.968 160.26 169.373C159.271 171.775 157.925 173.783 156.23 175.384C154.53 176.99 152.551 178.215 150.285 179.063C148.021 179.915 145.616 180.338 143.068 180.338C138.542 180.338 134.625 179.134 131.325 176.729C128.022 174.325 125.666 171.141 124.249 167.178L124.061 167.248L111.773 178.762C114.258 182.815 117.462 186.206 121.42 188.899C127.173 192.811 134.247 194.771 142.645 194.771C147.644 194.771 152.36 193.968 156.794 192.366C161.226 190.764 165.094 188.452 168.396 185.431C171.697 182.415 174.315 178.711 176.25 174.325C178.182 169.938 179.149 164.964 179.149 159.396C179.15 154.302 178.278 149.801 176.532 145.884Z" fill="white"/>
<path d="M48.735 124.307V133.786H49.1604C50.0078 132.467 51.1159 131.122 52.4848 129.754C53.8513 128.386 55.5271 127.161 57.5087 126.074C59.489 124.993 61.729 124.095 64.2297 123.386C66.7268 122.68 69.5356 122.324 72.6478 122.324C77.4595 122.324 81.892 123.245 85.9488 125.083C90.0044 126.926 93.4958 129.449 96.4208 132.655C99.3434 135.864 101.607 139.637 103.212 143.975C104.815 148.315 105.618 152.984 105.618 157.983C105.618 162.983 104.839 167.676 103.282 172.062C101.727 176.448 99.5069 180.268 96.6318 183.523C93.753 186.777 90.2651 189.375 86.1609 191.304C82.0567 193.237 77.4098 194.205 72.2235 194.205C67.4118 194.205 63.0018 193.214 58.9937 191.234C54.9819 189.253 51.8946 186.566 49.7258 183.167H49.4437V226.183H32.464V124.307H48.735ZM88.3546 157.982C88.3546 155.341 87.9529 152.723 87.1517 150.128C86.3482 147.535 85.1464 145.2 83.5429 143.124C81.9382 141.052 79.9116 139.376 77.4583 138.101C75.0051 136.828 72.1287 136.192 68.8281 136.192C65.7147 136.192 62.9307 136.852 60.4798 138.173C58.0266 139.495 55.9265 141.194 54.1831 143.266C52.4362 145.343 51.1171 147.701 50.2211 150.343C49.3228 152.984 48.8772 155.627 48.8772 158.267C48.8772 160.908 49.3228 163.527 50.2211 166.118C51.1171 168.715 52.4362 171.049 54.1831 173.125C55.9277 175.199 58.0266 176.875 60.4798 178.146C62.9307 179.421 65.7147 180.055 68.8281 180.055C72.1287 180.055 75.0051 179.397 77.4583 178.076C79.9104 176.754 81.9382 175.057 83.5429 172.981C85.1464 170.907 86.3482 168.548 87.1517 165.906C87.9529 163.265 88.3546 160.623 88.3546 157.982Z" fill="white"/>
<path d="M212.068 101.955L222.855 98.6986L224.973 105.216L214.231 108.881L220.899 118.336L215.278 122.413L208.259 113.124L201.422 122.169L195.964 118.011L202.632 108.881L191.807 104.973L193.928 98.4508L204.796 101.954V90.7109H212.07L212.068 101.955Z" fill="white"/>
</svg>

<svg xmlns="http://www.w3.org/2000/svg" width="256" height="256" fill="none"><rect width="256" height="256" fill="#ED225D" rx="60"/><path fill="#fff" d="M176.532 145.884q-2.617-5.87-7.286-9.904t-10.965-6.155q-6.299-2.121-13.654-2.122c-1.793 0-3.797.097-6.014.282-2.217.192-4.126.52-5.73.993l.99-21.651h40.892v-15.28h-57.022l-1.699 54.756q2.262-1.129 5.164-2.123a79 79 0 0 1 5.943-1.766 54 54 0 0 1 6.226-1.204 46 46 0 0 1 6.014-.423q4.102 0 8.065.918 3.961.922 7.145 3.255c2.123 1.555 3.842 3.609 5.165 6.154q1.98 3.82 1.98 9.623 0 4.528-1.486 8.136c-.989 2.402-2.335 4.41-4.03 6.011q-2.548 2.408-5.945 3.679-3.395 1.277-7.217 1.275-6.791 0-11.743-3.609-4.953-3.606-7.076-9.551l-.188.07-12.288 11.514c2.485 4.053 5.689 7.444 9.647 10.137 5.753 3.912 12.827 5.872 21.225 5.872q7.498-.001 14.149-2.405 6.648-2.403 11.602-6.935 4.951-4.525 7.854-11.106 2.898-6.579 2.899-14.929c.001-5.094-.871-9.595-2.617-13.512M48.735 124.307v9.479h.425q1.272-1.98 3.325-4.032 2.05-2.05 5.024-3.68 2.97-1.623 6.72-2.688c2.498-.706 5.307-1.062 8.419-1.062q7.217.001 13.3 2.759 6.085 2.764 10.473 7.572 4.383 4.813 6.791 11.32 2.405 6.51 2.406 14.008 0 7.5-2.336 14.079c-1.555 4.386-3.775 8.206-6.65 11.461-2.879 3.254-6.367 5.852-10.471 7.781q-6.157 2.9-13.937 2.901-7.218 0-13.23-2.971-6.017-2.97-9.268-8.067h-.282v43.016h-16.98V124.307zm39.62 33.675q0-3.961-1.203-7.854-1.205-3.89-3.61-7.004-2.404-3.11-6.084-5.023-3.68-1.91-8.63-1.909-4.67 0-8.348 1.981-3.68 1.984-6.297 5.093-2.62 3.115-3.962 7.077-1.346 3.963-1.344 7.924-.002 3.963 1.344 7.851a21.9 21.9 0 0 0 3.962 7.007 20.4 20.4 0 0 0 6.297 5.021q3.677 1.91 8.348 1.909 4.95.001 8.63-1.979 3.678-1.982 6.085-5.095 2.404-3.111 3.609-7.075 1.202-3.962 1.203-7.924m123.713-56.027 10.787-3.256 2.118 6.517-10.742 3.665 6.668 9.455-5.621 4.077-7.019-9.289-6.837 9.045-5.458-4.158 6.668-9.13-10.825-3.908 2.121-6.522 10.868 3.503V90.711h7.274z"/></svg>
